svg/300/sharp/back_hand-fill.svg

<svg xmlns="http://www.w3.org/2000/svg" width="48" height="48" viewBox="0 -960 960 960"><path d="M503.923-60.002q-88 0-162.461-44.615-74.461-44.615-119.384-120.768L81.54-463.769l44.307-44.307 174.154 123.692v-425.614h45.384v312.69h113.154v-392.69h45.384v392.69h113.154v-352.69h45.384v352.69h112.154v-282.691h45.384v407.768q0 130.413-92.444 221.321-92.443 90.909-223.632 90.909Z"/></svg>

<svg xmlns="http://www.w3.org/2000/svg" width="48" height="48" viewBox="0 -960 960 960"><path d="M503.92-60q-88 0-162.46-44.62Q267-149.23 222.08-225.39L81.54-463.77l44.31-44.31L300-384.38V-810h45.39v312.69h113.15V-890h45.38v392.69h113.16V-850h45.38v352.69h112.15V-780H820v407.77q0 130.41-92.44 221.32Q635.11-60 503.92-60Z"/></svg>
